static/img/kroki/7815fa19edafda2bbafd72397635c8da.svg

<?xml version="1.0" encoding="us-ascii" standalone="no"?><svg xmlns="http://www.w3.org/2000/svg" xmlns:xlink="http://www.w3.org/1999/xlink" contentStyleType="text/css" height="252px" preserveAspectRatio="none" style="width:920px;height:252px;" version="1.1" viewBox="0 0 920 252" width="920px" zoomAndPan="magnify"><defs/><g><!--class aws_alb_target_group--><g id="elem_aws_alb_target_group"><rect codeLine="22" fill="#3D176E" height="39.7891" id="aws_alb_target_group" rx="2.5" ry="2.5" style="stroke:#000D19;stroke-width:0.5;" width="226" x="307.5" y="206.58"/><ellipse cx="322.5" cy="226.4745" fill="#ADD1B2" rx="11" ry="11" style="stroke:#181818;stroke-width:1.0;"/><path d="M325.4688,232.1152 Q324.8906,232.412 324.25,232.5527 Q323.6094,232.7089 322.9063,232.7089 Q320.4063,232.7089 319.0781,231.0683 Q317.7656,229.412 317.7656,226.287 Q317.7656,223.162 319.0781,221.5058 Q320.4063,219.8495 322.9063,219.8495 Q323.6094,219.8495 324.25,220.0058 Q324.9063,220.162 325.4688,220.4589 L325.4688,223.1777 Q324.8438,222.5995 324.25,222.3339 Q323.6563,222.0527 323.0313,222.0527 Q321.6875,222.0527 321,223.1308 Q320.3125,224.1933 320.3125,226.287 Q320.3125,228.3808 321,229.4589 Q321.6875,230.5214 323.0313,230.5214 Q323.6563,230.5214 324.25,230.2558 Q324.8438,229.9745 325.4688,229.3964 L325.4688,232.1152 Z " fill="#000000"/><text fill="#D9B8FF" font-family="Helvetica" font-size="17" lengthAdjust="spacing" textLength="184" x="341.5" y="232.3598">aws_alb_target_group</text></g><!--class aws_ec2_security_group--><g id="elem_aws_ec2_security_group"><rect codeLine="24" fill="#3D176E" height="39.7891" id="aws_ec2_security_group" rx="2.5" ry="2.5" style="stroke:#000D19;stroke-width:0.5;" width="245" x="454" y="7"/><ellipse cx="469" cy="26.8945" fill="#ADD1B2" rx="11" ry="11" style="stroke:#181818;stroke-width:1.0;"/><path d="M471.9688,32.5352 Q471.3906,32.832 470.75,32.9727 Q470.1094,33.1289 469.4063,33.1289 Q466.9063,33.1289 465.5781,31.4883 Q464.2656,29.832 464.2656,26.707 Q464.2656,23.582 465.5781,21.9258 Q466.9063,20.2695 469.4063,20.2695 Q470.1094,20.2695 470.75,20.4258 Q471.4063,20.582 471.9688,20.8789 L471.9688,23.5977 Q471.3438,23.0195 470.75,22.7539 Q470.1563,22.4727 469.5313,22.4727 Q468.1875,22.4727 467.5,23.5508 Q466.8125,24.6133 466.8125,26.707 Q466.8125,28.8008 467.5,29.8789 Q468.1875,30.9414 469.5313,30.9414 Q470.1563,30.9414 470.75,30.6758 Q471.3438,30.3945 471.9688,29.8164 L471.9688,32.5352 Z " fill="#000000"/><text fill="#D9B8FF" font-family="Helvetica" font-size="17" lengthAdjust="spacing" textLength="203" x="488" y="32.7798">aws_ec2_security_group</text></g><!--class aws_ec2_subnet--><g id="elem_aws_ec2_subnet"><rect codeLine="26" fill="#3D176E" height="39.7891" id="aws_ec2_subnet" rx="2.5" ry="2.5" style="stroke:#000D19;stroke-width:0.5;" width="179" x="734" y="7"/><ellipse cx="749" cy="26.8945" fill="#ADD1B2" rx="11" ry="11" style="stroke:#181818;stroke-width:1.0;"/><path d="M751.9688,32.5352 Q751.3906,32.832 750.75,32.9727 Q750.1094,33.1289 749.4063,33.1289 Q746.9063,33.1289 745.5781,31.4883 Q744.2656,29.832 744.2656,26.707 Q744.2656,23.582 745.5781,21.9258 Q746.9063,20.2695 749.4063,20.2695 Q750.1094,20.2695 750.75,20.4258 Q751.4063,20.582 751.9688,20.8789 L751.9688,23.5977 Q751.3438,23.0195 750.75,22.7539 Q750.1563,22.4727 749.5313,22.4727 Q748.1875,22.4727 747.5,23.5508 Q746.8125,24.6133 746.8125,26.707 Q746.8125,28.8008 747.5,29.8789 Q748.1875,30.9414 749.5313,30.9414 Q750.1563,30.9414 750.75,30.6758 Q751.3438,30.3945 751.9688,29.8164 L751.9688,32.5352 Z " fill="#000000"/><text fill="#D9B8FF" font-family="Helvetica" font-size="17" lengthAdjust="spacing" textLength="137" x="768" y="32.7798">aws_ec2_subnet</text></g><!--class aws_ecs_capacity_provider--><g id="elem_aws_ecs_capacity_provider"><rect codeLine="28" fill="#3D176E" height="39.7891" id="aws_ecs_capacity_provider" rx="2.5" ry="2.5" style="stroke:#000D19;stroke-width:0.5;" width="265" x="7" y="206.58"/><ellipse cx="22" cy="226.4745" fill="#ADD1B2" rx="11" ry="11" style="stroke:#181818;stroke-width:1.0;"/><path d="M24.9688,232.1152 Q24.3906,232.412 23.75,232.5527 Q23.1094,232.7089 22.4063,232.7089 Q19.9063,232.7089 18.5781,231.0683 Q17.2656,229.412 17.2656,226.287 Q17.2656,223.162 18.5781,221.5058 Q19.9063,219.8495 22.4063,219.8495 Q23.1094,219.8495 23.75,220.0058 Q24.4063,220.162 24.9688,220.4589 L24.9688,223.1777 Q24.3438,222.5995 23.75,222.3339 Q23.1563,222.0527 22.5313,222.0527 Q21.1875,222.0527 20.5,223.1308 Q19.8125,224.1933 19.8125,226.287 Q19.8125,228.3808 20.5,229.4589 Q21.1875,230.5214 22.5313,230.5214 Q23.1563,230.5214 23.75,230.2558 Q24.3438,229.9745 24.9688,229.3964 L24.9688,232.1152 Z " fill="#000000"/><text fill="#D9B8FF" font-family="Helvetica" font-size="17" lengthAdjust="spacing" textLength="223" x="41" y="232.3598">aws_ecs_capacity_provider</text></g><!--class aws_ecs_cluster--><g id="elem_aws_ecs_cluster"><rect codeLine="30" fill="#3D176E" height="39.7891" id="aws_ecs_cluster" rx="2.5" ry="2.5" style="stroke:#000D19;stroke-width:0.5;" width="175" x="52" y="7"/><ellipse cx="67" cy="26.8945" fill="#ADD1B2" rx="11" ry="11" style="stroke:#181818;stroke-width:1.0;"/><path d="M69.9688,32.5352 Q69.3906,32.832 68.75,32.9727 Q68.1094,33.1289 67.4063,33.1289 Q64.9063,33.1289 63.5781,31.4883 Q62.2656,29.832 62.2656,26.707 Q62.2656,23.582 63.5781,21.9258 Q64.9063,20.2695 67.4063,20.2695 Q68.1094,20.2695 68.75,20.4258 Q69.4063,20.582 69.9688,20.8789 L69.9688,23.5977 Q69.3438,23.0195 68.75,22.7539 Q68.1563,22.4727 67.5313,22.4727 Q66.1875,22.4727 65.5,23.5508 Q64.8125,24.6133 64.8125,26.707 Q64.8125,28.8008 65.5,29.8789 Q66.1875,30.9414 67.5313,30.9414 Q68.1563,30.9414 68.75,30.6758 Q69.3438,30.3945 69.9688,29.8164 L69.9688,32.5352 Z " fill="#000000"/><text fill="#D9B8FF" font-family="Helvetica" font-size="17" lengthAdjust="spacing" textLength="133" x="86" y="32.7798">aws_ecs_cluster</text></g><!--class aws_ecs_service--><g id="elem_aws_ecs_service"><rect codeLine="32" fill="#3D176E" height="39.7891" id="aws_ecs_service" rx="2.5" ry="2.5" style="stroke:#000D19;stroke-width:0.5;" width="177" x="332" y="106.79"/><ellipse cx="347" cy="126.6845" fill="#ADD1B2" rx="11" ry="11" style="stroke:#181818;stroke-width:1.0;"/><path d="M349.9688,132.3252 Q349.3906,132.622 348.75,132.7627 Q348.1094,132.9189 347.4063,132.9189 Q344.9063,132.9189 343.5781,131.2783 Q342.2656,129.622 342.2656,126.497 Q342.2656,123.372 343.5781,121.7158 Q344.9063,120.0595 347.4063,120.0595 Q348.1094,120.0595 348.75,120.2158 Q349.4063,120.372 349.9688,120.6689 L349.9688,123.3877 Q349.3438,122.8095 348.75,122.5439 Q348.1563,122.2627 347.5313,122.2627 Q346.1875,122.2627 345.5,123.3408 Q344.8125,124.4033 344.8125,126.497 Q344.8125,128.5908 345.5,129.6689 Q346.1875,130.7314 347.5313,130.7314 Q348.1563,130.7314 348.75,130.4658 Q349.3438,130.1845 349.9688,129.6064 L349.9688,132.3252 Z " fill="#000000"/><text fill="#D9B8FF" font-family="Helvetica" font-size="17" lengthAdjust="spacing" textLength="135" x="366" y="132.5698">aws_ecs_service</text></g><!--class aws_elb--><g id="elem_aws_elb"><rect codeLine="34" fill="#3D176E" height="39.7891" id="aws_elb" rx="2.5" ry="2.5" style="stroke:#000D19;stroke-width:0.5;" width="109" x="569" y="206.58"/><ellipse cx="584" cy="226.4745" fill="#ADD1B2" rx="11" ry="11" style="stroke:#181818;stroke-width:1.0;"/><path d="M586.9688,232.1152 Q586.3906,232.412 585.75,232.5527 Q585.1094,232.7089 584.4063,232.7089 Q581.9063,232.7089 580.5781,231.0683 Q579.2656,229.412 579.2656,226.287 Q579.2656,223.162 580.5781,221.5058 Q581.9063,219.8495 584.4063,219.8495 Q585.1094,219.8495 585.75,220.0058 Q586.4063,220.162 586.9688,220.4589 L586.9688,223.1777 Q586.3438,222.5995 585.75,222.3339 Q585.1563,222.0527 584.5313,222.0527 Q583.1875,222.0527 582.5,223.1308 Q581.8125,224.1933 581.8125,226.287 Q581.8125,228.3808 582.5,229.4589 Q583.1875,230.5214 584.5313,230.5214 Q585.1563,230.5214 585.75,230.2558 Q586.3438,229.9745 586.9688,229.3964 L586.9688,232.1152 Z " fill="#000000"/><text fill="#D9B8FF" font-family="Helvetica" font-size="17" lengthAdjust="spacing" textLength="67" x="603" y="232.3598">aws_elb</text></g><!--class aws_iam_role--><g id="elem_aws_iam_role"><rect codeLine="36" fill="#3D176E" height="39.7891" id="aws_iam_role" rx="2.5" ry="2.5" style="stroke:#000D19;stroke-width:0.5;" width="157" x="262" y="7"/><ellipse cx="277" cy="26.8945" fill="#ADD1B2" rx="11" ry="11" style="stroke:#181818;stroke-width:1.0;"/><path d="M279.9688,32.5352 Q279.3906,32.832 278.75,32.9727 Q278.1094,33.1289 277.4063,33.1289 Q274.9063,33.1289 273.5781,31.4883 Q272.2656,29.832 272.2656,26.707 Q272.2656,23.582 273.5781,21.9258 Q274.9063,20.2695 277.4063,20.2695 Q278.1094,20.2695 278.75,20.4258 Q279.4063,20.582 279.9688,20.8789 L279.9688,23.5977 Q279.3438,23.0195 278.75,22.7539 Q278.1563,22.4727 277.5313,22.4727 Q276.1875,22.4727 275.5,23.5508 Q274.8125,24.6133 274.8125,26.707 Q274.8125,28.8008 275.5,29.8789 Q276.1875,30.9414 277.5313,30.9414 Q278.1563,30.9414 278.75,30.6758 Q279.3438,30.3945 279.9688,29.8164 L279.9688,32.5352 Z " fill="#000000"/><text fill="#D9B8FF" font-family="Helvetica" font-size="17" lengthAdjust="spacing" textLength="115" x="296" y="32.7798">aws_iam_role</text></g><!--link aws_ec2_security_group to aws_ecs_service--><g id="link_aws_ec2_security_group_aws_ecs_service"><path codeLine="38" d="M545.68,47.22 C519.93,63.36 483.2,86.38 456.18,103.32 " fill="none" id="aws_ec2_security_group-to-aws_ecs_service" style="stroke:#1A83AF;stroke-width:2.0;"/><polygon fill="#1A83AF" points="452.26,106.41,462.0086,105.0084,456.4936,103.7497,457.7522,98.2347,452.26,106.41" style="stroke:#1A83AF;stroke-width:2.0;"/></g><!--link aws_ec2_security_group to aws_elb--><g id="link_aws_ec2_security_group_aws_elb"><path codeLine="39" d="M581.09,47.2 C589.66,83.2 608.06,160.55 617.55,200.48 " fill="none" id="aws_ec2_security_group-to-aws_elb" style="stroke:#1A83AF;stroke-width:2.0;"/><polygon fill="#1A83AF" points="618.89,205.09,620.6954,195.408,617.7313,200.2261,612.9132,197.262,618.89,205.09" style="stroke:#1A83AF;stroke-width:2.0;"/></g><!--link aws_ec2_subnet to aws_ecs_service--><g id="link_aws_ec2_subnet_aws_ecs_service"><path codeLine="40" d="M743.88,47.22 C675.13,63.9 576.07,87.94 505.74,105 " fill="none" id="aws_ec2_subnet-to-aws_ecs_service" style="stroke:#1A83AF;stroke-width:2.0;"/><polygon fill="#1A83AF" points="501.3,106.32,510.9919,108.0715,506.1574,105.1342,509.0946,100.2997,501.3,106.32" style="stroke:#1A83AF;stroke-width:2.0;"/></g><!--link aws_ec2_subnet to aws_elb--><g id="link_aws_ec2_subnet_aws_elb"><path codeLine="41" d="M803.96,47.2 C767.07,83.65 687.29,162.46 647.33,201.94 " fill="none" id="aws_ec2_subnet-to-aws_elb" style="stroke:#1A83AF;stroke-width:2.0;"/><polygon fill="#1A83AF" points="644.12,205.09,653.3336,201.6102,647.6769,201.576,647.7112,195.9192,644.12,205.09" style="stroke:#1A83AF;stroke-width:2.0;"/></g><!--link aws_ecs_cluster to aws_ecs_capacity_provider--><g id="link_aws_ecs_cluster_aws_ecs_capacity_provider"><path codeLine="42" d="M139.5,47.2 C139.5,83.2 139.5,160.55 139.5,200.48 " fill="none" id="aws_ecs_cluster-to-aws_ecs_capacity_provider" style="stroke:#1A83AF;stroke-width:2.0;"/><polygon fill="#1A83AF" points="139.5,205.09,143.5,196.09,139.5,200.09,135.5,196.09,139.5,205.09" style="stroke:#1A83AF;stroke-width:2.0;"/></g><!--link aws_ecs_cluster to aws_ecs_service--><g id="link_aws_ecs_cluster_aws_ecs_service"><path codeLine="43" d="M195.02,47.22 C242.45,63.72 310.59,87.44 359.53,104.47 " fill="none" id="aws_ecs_cluster-to-aws_ecs_service" style="stroke:#1A83AF;stroke-width:2.0;"/><polygon fill="#1A83AF" points="364.1,106.41,356.9112,99.6779,359.3769,104.7691,354.2857,107.2348,364.1,106.41" style="stroke:#1A83AF;stroke-width:2.0;"/></g><!--link aws_ecs_service to aws_alb_target_group--><g id="link_aws_ecs_service_aws_alb_target_group"><path codeLine="44" d="M420.5,147.01 C420.5,162.28 420.5,183.71 420.5,200.32 " fill="none" id="aws_ecs_service-to-aws_alb_target_group" style="stroke:#1A83AF;stroke-width:2.0;"/><polygon fill="#1A83AF" points="420.5,205.2,424.5,196.2,420.5,200.2,416.5,196.2,420.5,205.2" style="stroke:#1A83AF;stroke-width:2.0;"/></g><!--link aws_ecs_service to aws_ecs_capacity_provider--><g id="link_aws_ecs_service_aws_ecs_capacity_provider"><path codeLine="45" d="M364.98,147.01 C317.55,163.51 249.41,187.23 200.47,204.26 " fill="none" id="aws_ecs_service-to-aws_ecs_capacity_provider" style="stroke:#1A83AF;stroke-width:2.0;"/><polygon fill="#1A83AF" points="195.9,206.2,205.715,207.0155,200.6215,204.5546,203.0824,199.4611,195.9,206.2" style="stroke:#1A83AF;stroke-width:2.0;"/></g><!--link aws_ecs_service to aws_elb--><g id="link_aws_ecs_service_aws_elb"><path codeLine="46" d="M460.61,147.01 C494.53,163.35 543.1,186.75 578.37,203.74 " fill="none" id="aws_ecs_service-to-aws_elb" style="stroke:#1A83AF;stroke-width:2.0;"/><polygon fill="#1A83AF" points="582.48,206.2,576.1127,198.6862,577.9769,204.0271,572.636,205.8912,582.48,206.2" style="stroke:#1A83AF;stroke-width:2.0;"/></g><!--link aws_iam_role to aws_ecs_service--><g id="link_aws_iam_role_aws_ecs_service"><path codeLine="47" d="M356.31,47.22 C369.13,62.89 387.26,85.05 400.98,101.83 " fill="none" id="aws_iam_role-to-aws_ecs_service" style="stroke:#1A83AF;stroke-width:2.0;"/><polygon fill="#1A83AF" points="404.73,105.41,402.142,95.9073,401.57,101.5351,395.9422,100.9632,404.73,105.41" style="stroke:#1A83AF;stroke-width:2.0;"/></g><!--SRC=[ZPD1Ry8m38Nl_8f8d95WQ0Ckapeaj5tGD7QRfifDN8X8ayf9GMpQVnyT34hI5gv-d-ttd7Ob1JBCShTZ6MO9aktOjTGv46Gi8ZBRgL66M3TD8HsEV75cjBiAp253zengWqvoy8dtbUHhZTQokuhq17oz95DeSHZl2BJTIwXTXPegi3PoZcHIEAoO4PDadAO-wG_j3iLWz801PaWW7P5-loy64n-vkgerzubOo2zaW-hHviPXO3DOyKUrkYo9YiaWwB_UwF4LX91woUuhjRU39z985_N52eJPbdGAobRNM8U4nkrod0QfS38MwQWMVcc2UNav1biRWqfY1xH45vTWphuxFnKP-LriaHSatQuPA1ADBX1ip247NdRcP3RxFuJg65MKXciKYxIH77r59Lv5GXQJKGUmmNJlepk8niDezjbxz1VStgEIZfVvjhbDx6dU-Gor0uCxtjPswUDyq03sFuBh7UskcjkEYKzFrkRx5m00]--></g></svg>

<svg xmlns="http://www.w3.org/2000/svg" width="920" height="252" preserveAspectRatio="none" style="width:920px;height:252px"><rect width="226" height="39.789" x="307.5" y="206.58" fill="#3D176E" rx="2.5" ry="2.5" style="stroke:#000d19;stroke-width:.5"/><circle cx="322.5" cy="226.475" r="11" fill="#ADD1B2" style="stroke:#181818;stroke-width:1"/><path d="M325.469 232.115q-.578.297-1.219.438-.64.156-1.344.156-2.5 0-3.828-1.64-1.312-1.657-1.312-4.782t1.312-4.781q1.328-1.656 3.828-1.656.703 0 1.344.156.656.156 1.219.453v2.719q-.625-.578-1.219-.844-.594-.281-1.219-.281-1.344 0-2.031 1.078-.688 1.062-.688 3.156 0 2.094.688 3.172.688 1.062 2.031 1.062.625 0 1.219-.265.594-.281 1.219-.86v2.72Z"/><text x="341.5" y="232.36" fill="#D9B8FF" font-family="Helvetica" font-size="17" textLength="184">aws_alb_target_group</text><rect width="245" height="39.789" x="454" y="7" fill="#3D176E" rx="2.5" ry="2.5" style="stroke:#000d19;stroke-width:.5"/><circle cx="469" cy="26.895" r="11" fill="#ADD1B2" style="stroke:#181818;stroke-width:1"/><path d="M471.969 32.535q-.578.297-1.219.438-.64.156-1.344.156-2.5 0-3.828-1.64-1.312-1.657-1.312-4.782t1.312-4.781q1.328-1.656 3.828-1.656.703 0 1.344.156.656.156 1.219.453v2.719q-.625-.578-1.219-.844-.594-.281-1.219-.281-1.344 0-2.031 1.078-.688 1.062-.688 3.156 0 2.094.688 3.172.688 1.062 2.031 1.062.625 0 1.219-.265.594-.281 1.219-.86v2.72Z"/><text x="488" y="32.78" fill="#D9B8FF" font-family="Helvetica" font-size="17" textLength="203">aws_ec2_security_group</text><rect width="179" height="39.789" x="734" y="7" fill="#3D176E" rx="2.5" ry="2.5" style="stroke:#000d19;stroke-width:.5"/><circle cx="749" cy="26.895" r="11" fill="#ADD1B2" style="stroke:#181818;stroke-width:1"/><path d="M751.969 32.535q-.578.297-1.219.438-.64.156-1.344.156-2.5 0-3.828-1.64-1.312-1.657-1.312-4.782t1.312-4.781q1.328-1.656 3.828-1.656.703 0 1.344.156.656.156 1.219.453v2.719q-.625-.578-1.219-.844-.594-.281-1.219-.281-1.343 0-2.031 1.078-.688 1.062-.688 3.156 0 2.094.688 3.172.688 1.062 2.031 1.062.625 0 1.219-.265.594-.281 1.219-.86v2.72Z"/><text x="768" y="32.78" fill="#D9B8FF" font-family="Helvetica" font-size="17" textLength="137">aws_ec2_subnet</text><rect width="265" height="39.789" x="7" y="206.58" fill="#3D176E" rx="2.5" ry="2.5" style="stroke:#000d19;stroke-width:.5"/><circle cx="22" cy="226.475" r="11" fill="#ADD1B2" style="stroke:#181818;stroke-width:1"/><path d="M24.969 232.115q-.578.297-1.219.438-.64.156-1.344.156-2.5 0-3.828-1.64-1.312-1.657-1.312-4.782t1.312-4.781q1.328-1.656 3.828-1.656.703 0 1.344.156.656.156 1.219.453v2.719q-.625-.578-1.219-.844-.594-.281-1.219-.281-1.343 0-2.031 1.078-.688 1.062-.688 3.156 0 2.094.688 3.172.688 1.062 2.031 1.062.625 0 1.219-.265.594-.281 1.219-.86v2.72Z"/><text x="41" y="232.36" fill="#D9B8FF" font-family="Helvetica" font-size="17" textLength="223">aws_ecs_capacity_provider</text><rect width="175" height="39.789" x="52" y="7" fill="#3D176E" rx="2.5" ry="2.5" style="stroke:#000d19;stroke-width:.5"/><circle cx="67" cy="26.895" r="11" fill="#ADD1B2" style="stroke:#181818;stroke-width:1"/><path d="M69.969 32.535q-.578.297-1.219.438-.64.156-1.344.156-2.5 0-3.828-1.64-1.312-1.657-1.312-4.782t1.312-4.781q1.328-1.656 3.828-1.656.703 0 1.344.156.656.156 1.219.453v2.719q-.625-.578-1.219-.844-.594-.281-1.219-.281-1.344 0-2.031 1.078-.688 1.062-.688 3.156 0 2.094.688 3.172.688 1.062 2.031 1.062.625 0 1.219-.265.594-.281 1.219-.86v2.72Z"/><text x="86" y="32.78" fill="#D9B8FF" font-family="Helvetica" font-size="17" textLength="133">aws_ecs_cluster</text><rect width="177" height="39.789" x="332" y="106.79" fill="#3D176E" rx="2.5" ry="2.5" style="stroke:#000d19;stroke-width:.5"/><circle cx="347" cy="126.684" r="11" fill="#ADD1B2" style="stroke:#181818;stroke-width:1"/><path d="M349.969 132.325q-.578.297-1.219.438-.64.156-1.344.156-2.5 0-3.828-1.64-1.312-1.657-1.312-4.782t1.312-4.781q1.328-1.656 3.828-1.656.703 0 1.344.156.656.156 1.219.453v2.719q-.625-.579-1.219-.844-.594-.281-1.219-.281-1.344 0-2.031 1.078-.688 1.062-.688 3.156 0 2.094.688 3.172.688 1.062 2.031 1.062.625 0 1.219-.265.594-.281 1.219-.86v2.72Z"/><text x="366" y="132.57" fill="#D9B8FF" font-family="Helvetica" font-size="17" textLength="135">aws_ecs_service</text><rect width="109" height="39.789" x="569" y="206.58" fill="#3D176E" rx="2.5" ry="2.5" style="stroke:#000d19;stroke-width:.5"/><circle cx="584" cy="226.475" r="11" fill="#ADD1B2" style="stroke:#181818;stroke-width:1"/><path d="M586.969 232.115q-.578.297-1.219.438-.64.156-1.344.156-2.5 0-3.828-1.64-1.312-1.657-1.312-4.782t1.312-4.781q1.328-1.656 3.828-1.656.703 0 1.344.156.656.156 1.219.453v2.719q-.625-.578-1.219-.844-.594-.281-1.219-.281-1.343 0-2.031 1.078-.688 1.062-.688 3.156 0 2.094.688 3.172.688 1.062 2.031 1.062.625 0 1.219-.265.594-.281 1.219-.86v2.72Z"/><text x="603" y="232.36" fill="#D9B8FF" font-family="Helvetica" font-size="17" textLength="67">aws_elb</text><rect width="157" height="39.789" x="262" y="7" fill="#3D176E" rx="2.5" ry="2.5" style="stroke:#000d19;stroke-width:.5"/><circle cx="277" cy="26.895" r="11" fill="#ADD1B2" style="stroke:#181818;stroke-width:1"/><path d="M279.969 32.535q-.578.297-1.219.438-.64.156-1.344.156-2.5 0-3.828-1.64-1.312-1.657-1.312-4.782t1.312-4.781q1.328-1.656 3.828-1.656.703 0 1.344.156.656.156 1.219.453v2.719q-.625-.578-1.219-.844-.594-.281-1.219-.281-1.344 0-2.031 1.078-.688 1.062-.688 3.156 0 2.094.688 3.172.688 1.062 2.031 1.062.625 0 1.219-.265.594-.281 1.219-.86v2.72Z"/><text x="296" y="32.78" fill="#D9B8FF" font-family="Helvetica" font-size="17" textLength="115">aws_iam_role</text><path fill="none" d="M545.68 47.22c-25.75 16.14-62.48 39.16-89.5 56.1" style="stroke:#1a83af;stroke-width:2"/><path fill="#1A83AF" d="m452.26 106.41 9.749-1.402-5.515-1.258 1.258-5.515-5.492 8.175z" style="stroke:#1a83af;stroke-width:2"/><path fill="none" d="M581.09 47.2c8.57 36 26.97 113.35 36.46 153.28" style="stroke:#1a83af;stroke-width:2"/><path fill="#1A83AF" d="m618.89 205.09 1.805-9.682-2.964 4.818-4.818-2.964 5.977 7.828z" style="stroke:#1a83af;stroke-width:2"/><path fill="none" d="M743.88 47.22C675.13 63.9 576.07 87.94 505.74 105" style="stroke:#1a83af;stroke-width:2"/><path fill="#1A83AF" d="m501.3 106.32 9.692 1.752-4.835-2.938 2.938-4.834-7.795 6.02z" style="stroke:#1a83af;stroke-width:2"/><path fill="none" d="M803.96 47.2c-36.89 36.45-116.67 115.26-156.63 154.74" style="stroke:#1a83af;stroke-width:2"/><path fill="#1A83AF" d="m644.12 205.09 9.214-3.48-5.657-.034.034-5.657-3.591 9.171z" style="stroke:#1a83af;stroke-width:2"/><path fill="none" d="M139.5 47.2v153.28" style="stroke:#1a83af;stroke-width:2"/><path fill="#1A83AF" d="m139.5 205.09 4-9-4 4-4-4 4 9z" style="stroke:#1a83af;stroke-width:2"/><path fill="none" d="M195.02 47.22c47.43 16.5 115.57 40.22 164.51 57.25" style="stroke:#1a83af;stroke-width:2"/><path fill="#1A83AF" d="m364.1 106.41-7.189-6.732 2.466 5.091-5.091 2.466 9.814-.825z" style="stroke:#1a83af;stroke-width:2"/><path fill="none" d="M420.5 147.01v53.31" style="stroke:#1a83af;stroke-width:2"/><path fill="#1A83AF" d="m420.5 205.2 4-9-4 4-4-4 4 9z" style="stroke:#1a83af;stroke-width:2"/><path fill="none" d="M364.98 147.01c-47.43 16.5-115.57 40.22-164.51 57.25" style="stroke:#1a83af;stroke-width:2"/><path fill="#1A83AF" d="m195.9 206.2 9.815.816-5.094-2.461 2.461-5.094-7.182 6.739z" style="stroke:#1a83af;stroke-width:2"/><path fill="none" d="m460.61 147.01 117.76 56.73" style="stroke:#1a83af;stroke-width:2"/><path fill="#1A83AF" d="m582.48 206.2-6.367-7.514 1.864 5.341-5.341 1.864 9.844.309z" style="stroke:#1a83af;stroke-width:2"/><path fill="none" d="M356.31 47.22c12.82 15.67 30.95 37.83 44.67 54.61" style="stroke:#1a83af;stroke-width:2"/><path fill="#1A83AF" d="m404.73 105.41-2.588-9.503-.572 5.628-5.628-.572 8.788 4.447z" style="stroke:#1a83af;stroke-width:2"/></svg>
